dist/img/icons/safari/safari-original.svg

<svg xmlns="http://www.w3.org/2000/svg" viewBox="0 0 128 128"><linearGradient id="a" gradientUnits="userSpaceOnUse" x1="295.835" y1="274.049" x2="295.835" y2="272.933" gradientTransform="matrix(112 0 0 -112 -33069.5 30695)"><stop offset="0" stop-color="#19D7FF"/><stop offset="1" stop-color="#1E64F0"/></linearGradient><circle fill="url(#a)" cx="64" cy="64" r="62.5"/><path stroke="#fff" fill="none" d="M64 7.6v9.2m0 94.1v9.2M73.8 8.5l-1.6 9.1m-16.4 92.5l-1.6 9.1M83.2 11l-3.1 8.7M47.9 108l-3.1 8.7M54.2 8.5l1.6 9.1m16.4 92.5l1.6 9.1M44.8 11l3.1 8.7M80.1 108l3.1 8.7M35.9 15.2l4.6 8m47 81.4l4.6 7.9M27.9 20.8l5.9 7m60.4 72.1l5.9 7M20.9 27.7l7.1 5.9m72 60.5l7.1 5.9M15.3 35.8l8 4.6m81.4 47l8 4.6M11.2 44.6l8.6 3.2m88.4 32.1l8.6 3.2M8.6 54.1l9.1 1.6M110.3 72l9.1 1.6M7.8 63.9H17m94 0h9.2M8.6 73.6l9.1-1.6m92.6-16.3l9.1-1.6m-108.2 29l8.6-3.2m88.4-32.1l8.6-3.2M15.3 92l8-4.6m81.4-47l8-4.6M20.9 100l7.1-5.9m72-60.5l7.1-5.9m-79.2 79.2l5.9-7m60.4-72.1l5.9-7m-64.2 91.7l4.6-7.9m47-81.4l4.6-8m-33-7.3l.4 5m9 102l.4 5M49.4 9.6l1.3 4.8m26.6 98.9l1.3 4.9M40.2 12.9l2.1 4.6m43.3 92.8l2.2 4.5m-56.1-97l2.9 4.1m58.8 83.9l2.9 4.1M24.2 24.1l3.6 3.5m72.4 72.5l3.6 3.5m-85.9-72l4.2 2.9m83.8 58.7l4.2 2.9m-97-56l4.5 2.1m92.8 43.3l4.5 2.1M9.7 49.3l4.9 1.3m98.8 26.5l4.9 1.3M8 58.9l5 .5m102 8.9l5 .5m-112 0l5-.5m102-8.9l5-.5M9.7 78.4l4.9-1.3m98.8-26.5l4.9-1.3M13.1 87.6l4.5-2.1m92.8-43.3l4.5-2.1m-97 56l4.2-2.9m83.8-58.7l4.2-2.9m-78.4 78.3l2.9-4.1m58.8-83.9l2.9-4.1m-56.1 97l2.2-4.5m43.2-92.8l2.2-4.6M49.4 118.2l1.3-4.9m26.6-98.9l1.3-4.8M59.1 119.9l.4-5m9-102l.4-5"/><path fill="red" d="M106.7 21l-48 37.7 5.2 5.2z"/><path fill="#D01414" d="M63.9 63.9l6 6L106.7 21z"/><path fill="#fff" d="M58.7 58.7l-37.7 48 42.9-42.8z"/><path fill="#ACACAC" d="M21 106.7l48.9-36.8-6-6z"/></svg>

<svg xmlns="http://www.w3.org/2000/svg" viewBox="0 0 128 128"><g><linearGradient id="a" gradientUnits="userSpaceOnUse" x1="295.835" y1="274.049" x2="295.835" y2="272.933" gradientTransform="matrix(112 0 0 -112 -33069.5 30695)"><stop offset="0" stop-color="#19D7FF"/><stop offset="1" stop-color="#1E64F0"/></linearGradient><circle fill="url(#a)" cx="64" cy="64" r="62.5"/><path stroke="#fff" fill="none" d="M64 7.6v9.2M64 110.9v9.2M73.8 8.5l-1.6 9.1M55.8 110.1l-1.6 9.1M83.2 11l-3.1 8.7M47.9 108l-3.1 8.7M54.2 8.5l1.6 9.1M72.2 110.1l1.6 9.1M44.8 11l3.1 8.7M80.1 108l3.1 8.7M35.9 15.2l4.6 8M87.5 104.6l4.6 7.9M27.9 20.8l5.9 7M94.2 99.9l5.9 7M20.9 27.7l7.1 5.9M100 94.1l7.1 5.9M15.3 35.8l8 4.6M104.7 87.4l8 4.6M11.2 44.6l8.6 3.2M108.2 79.9l8.6 3.2M8.6 54.1l9.1 1.6M110.3 72l9.1 1.6M7.8 63.9h9.2M111 63.9h9.2M8.6 73.6l9.1-1.6M110.3 55.7l9.1-1.6M11.2 83.1l8.6-3.2M108.2 47.8l8.6-3.2M15.3 92l8-4.6M104.7 40.4l8-4.6M20.9 100l7.1-5.9M100 33.6l7.1-5.9M27.9 106.9l5.9-7M94.2 27.8l5.9-7M35.9 112.5l4.6-7.9M87.5 23.2l4.6-8M59.1 7.9l.4 5M68.5 114.9l.4 5M49.4 9.6l1.3 4.8M77.3 113.3l1.3 4.9M40.2 12.9l2.1 4.6M85.6 110.3l2.2 4.5M31.7 17.8l2.9 4.1M93.4 105.8l2.9 4.1M24.2 24.1l3.6 3.5M100.2 100.1l3.6 3.5M17.9 31.6l4.2 2.9M105.9 93.2l4.2 2.9M13.1 40.1l4.5 2.1M110.4 85.5l4.5 2.1M9.7 49.3l4.9 1.3M113.4 77.1l4.9 1.3M8 58.9l5 .5M115 68.3l5 .5M8 68.8l5-.5M115 59.4l5-.5M9.7 78.4l4.9-1.3M113.4 50.6l4.9-1.3M13.1 87.6l4.5-2.1M110.4 42.2l4.5-2.1M17.9 96.1l4.2-2.9M105.9 34.5l4.2-2.9M31.7 109.9l2.9-4.1M93.4 21.9l2.9-4.1M40.2 114.8l2.2-4.5M85.6 17.5l2.2-4.6M49.4 118.2l1.3-4.9M77.3 14.4l1.3-4.8M59.1 119.9l.4-5M68.5 12.9l.4-5"/><path fill="#f00" d="M106.7 21l-48 37.7 5.2 5.2z"/><path fill="#D01414" d="M63.9 63.9l6 6 36.8-48.9z"/><path fill="#fff" d="M58.7 58.7l-37.7 48 42.9-42.8z"/><path fill="#ACACAC" d="M21 106.7l48.9-36.8-6-6z"/></g></svg>
